X: 33285
T: Push About The Jugg
R: jig
M: 6/8
K: Eminor
EGE G2A|BAG F2A|DED FAd|AFD FED|
EFE G2A|BAG FGA|BGE AFD|E3B3:|
|:AFA d3|dfe d3|AFA d2B|ABA FED|
B2e e2e|efd e3|B2e e2f|g2e fdB|
gba gfe|fag fed|efg dBG|AdG FED|
EFE G2A|BAG FGA|BGd AFD|E3 B3:|

